icons/svg/voice.svg

<svg xmlns="http://www.w3.org/2000/svg" version="1.1" baseProfile="full" width="24" height="24" viewBox="0 0 24.00 24.00" xml:space="preserve"><path fill="#000" fill-opacity="1" stroke-width="1.333" stroke-linejoin="miter" d="M9 5c2.21 0 4 1.79 4 4s-1.79 4-4 4-4-1.79-4-4 1.79-4 4-4zm0 10c2.67 0 8 1.34 8 4v2H1v-2c0-2.66 5.33-4 8-4zm7.76-9.64c2.02 2.2 2.02 5.25 0 7.27l-1.68-1.69c.84-1.18.84-2.71 0-3.89l1.68-1.69zM20.07 2c3.91 4.05 3.9 10.11 0 14l-1.63-1.63c2.77-3.18 2.77-7.72 0-10.74L20.07 2z"/></svg>

﻿<?xml version="1.0" encoding="utf-8"?>
<!DOCTYPE svg PUBLIC "-//W3C//DTD SVG 1.1//EN" "http://www.w3.org/Graphics/SVG/1.1/DTD/svg11.dtd">
<svg xmlns="http://www.w3.org/2000/svg" xmlns:xlink="http://www.w3.org/1999/xlink" version="1.1" baseProfile="full" width="24" height="24" viewBox="0 0 24.00 24.00" enable-background="new 0 0 24.00 24.00" xml:space="preserve">
	<path fill="#000000" fill-opacity="1" stroke-width="1.33333" stroke-linejoin="miter" d="M 9,5C 11.2091,5 13,6.7909 13,9C 13,11.2091 11.2091,13 9,13C 6.79086,13 5,11.2091 5,9C 5,6.7909 6.79086,5 9,5 Z M 9,15C 11.67,15 17,16.34 17,19L 17,21L 1,21L 1,19C 1,16.34 6.33,15 9,15 Z M 16.76,5.36C 18.78,7.56 18.78,10.61 16.76,12.63L 15.08,10.94C 15.92,9.76 15.92,8.23 15.08,7.05L 16.76,5.36 Z M 20.07,2C 23.98,6.05 23.97,12.11 20.07,16L 18.44,14.37C 21.21,11.19 21.21,6.65 18.44,3.63L 20.07,2 Z "/>
</svg>
